white/gbx.svg

<!-- Generated by IcoMoon.io -->
<svg version="1.1" xmlns="http://www.w3.org/2000/svg" width="32" height="32" viewBox="0 0 32 32">
<title>gbx</title>
<path fill="#fff" d="M16 32c-8.837 0-16-7.163-16-16s7.163-16 16-16 16 7.163 16 16-7.163 16-16 16zM15.699 11.006h-4.7c-0.995 0-2.141 0.325-3.054 0.973-1.228 0.872-1.945 2.238-1.945 4.024s0.717 3.152 1.945 4.024c0.853 0.599 1.909 0.961 3.050 0.973l0.003 0h2.002v-2.060h-2c-0.61 0-1.361-0.214-1.92-0.61-0.694-0.492-1.080-1.228-1.080-2.327s0.387-1.835 1.080-2.327c0.538-0.372 1.201-0.598 1.917-0.61l0.003-0h4.7zM10.699 17.188h3.001v3.812h2v-5.873h-5zM19 13.060h5v5.878h-5.002v-5.872h-2v7.934h9.002v-10h-7.002z"></path>
</svg>

<svg height="32" width="32" xmlns="http://www.w3.org/2000/svg"><path d="M16 32C7.163 32 0 24.837 0 16S7.163 0 16 0s16 7.163 16 16-7.163 16-16 16zm-.301-20.994h-4.7c-.995 0-2.141.325-3.054.973C6.717 12.851 6 14.217 6 16.003s.717 3.152 1.945 4.024a5.447 5.447 0 003.053.973H13v-2.06h-2c-.61 0-1.361-.214-1.92-.61C8.386 17.838 8 17.102 8 16.003s.387-1.835 1.08-2.327a3.507 3.507 0 011.92-.61h4.7zm-5 6.182H13.7V21h2v-5.873h-5zM19 13.06h5v5.878h-5.002v-5.872h-2V21H26V11h-7.002z" fill="#fff" fill-rule="evenodd"/></svg>
